X: 20625
T: John Roarty's
R: reel
M: 4/4
K: Cmajor
D|EGAB cGG2|EGBG c2 GF|EGAB cEGc|d2 ed ^cAAG|
EGAB cGG2|EGBG c2 GF|EGAB cEGc|d2 ed ^cde^f||
g2 ec Gce^f|gece a2 ga|ecgc abag|ed^ce d=cA^f|
g2 ec Gce^f|gece a2 ga|ecgc abag|ed^ce d=cAG||
D|EGAB cG (3EEG|EG[BG]G [c3G3] G|EGAB cEGc|d2 ed ^cAAG|
EGAB cG(3GGG|EGBG cAGF|EGAB cEGc|d2 ed ^cde^f||
g2 ec Gce^f|{a}gece (3aaa ga|ecgc abag|ed^ce d=cA^f|
g2 ec Gce^f|{a}gece (3aaa ga|ecgc abag|ed^ce d=cAG||

